X:80
T:Humors of Finntown* (r)
B:NFID.244a ("untitled reel")
080hu_finn
S:JMcK
L:1/8
M:C
R:reel
Q:360
K:D
A3=c BGGB|AFFD EDD2|A3=c BGGB|efec d4|
A3=c BGGB|AFFD E2D2|A3=c BGGB|efec d2||
(3ABc|d2fd gdfd|efec dcBA|d2fd gdf2|efec d2 (3ABc|
d2fd gdf2|efec dcBA|A3=c BGGB|efec d4|]

